X: 1
T: Anster Market
M: 4/4
L: 1/8
R: hornpipe
K: Gmix
|:GA|B2 Bd c2 Bc|dggB c2 Bc|dggf (3edc dc|(3BAG Bc d2 GA|
B2 Bd c2 Bc|dggB c2 Bc|dggf (3edc dc|(3BAG FA G2:|
|:GA|B2E2 DEGA|(3BAG Bc d2 GA|B2E2 DEGB|AGAB G2 :||
